img/checkbox-on.svg

<svg width="27" height="23" viewBox="0 0 27 23" fill="none" xmlns="http://www.w3.org/2000/svg">
<path d="M7.28505 7.48598L4.45605 10.315L12.2391 18.098L26.1711 4.16598L23.3431 1.33698L12.2391 12.439L7.28505 7.48598Z" fill="#C5C5C5"/>
<path d="M21 20C21 20.542 20.542 21 20 21H3C2.458 21 2 20.542 2 20V3C2 2.458 2.458 2 3 2H19.908L21.493 0.415C21.041 0.146542 20.5257 0.00329969 20 0H3C1.35 0 0 1.35 0 3V20C0 21.65 1.35 23 3 23H20C21.65 23 23 21.65 23 20V10.171L21 12.171V20Z" fill="#C5C5C5"/>
</svg>

<svg width="27" height="23" fill="none" xmlns="http://www.w3.org/2000/svg"><path d="M7.3 7.5l-2.8 2.8 7.7 7.8 14-14-2.9-2.8-11 11.1-5-5z" fill="#C5C5C5"/><path d="M21 20c0 .5-.5 1-1 1H3a1 1 0 01-1-1V3c0-.5.5-1 1-1h17L21.4.4A3 3 0 0020 0H3a3 3 0 00-3 3v17a3 3 0 003 3h17a3 3 0 003-3v-9.8l-2 2V20z" fill="#C5C5C5"/></svg>
